X:1
T: Irish Reel
P:Kerr's 2nd #291
R:Reel
Q: 232
K:F
M:4/4
L:1/8
FD|:CF ((3FFF) FG AB|cA dB cA GF|A3/2D1/2 ((3DDD) DE FG|AF GE FD CA,|
CF ((3FFF) FG AB|cA dB cA GF|A3/2D1/2 ((3DDD) DE FG|AF GE F2 d3/2A1/2|
A3/2d1/2 ((3ddd) d3f|ef ge fe dc|A3/2c1/2 ((3ccc) c3d|ef ge fe dc|
A3/2d1/2 ((3ddd) d3f|ef ge fe dc|af ((3gfe) fd de|fd cA GF F2:|
